x-pack/plugins/enterprise_search/public/assets/source_icons/dropbox.svg

<svg fill="none" height="100" viewBox="0 0 100 100" width="100" xmlns="http://www.w3.org/2000/svg"><path clip-rule="evenodd" d="m20.3395 39.4907-20.3395-16.2859 29.4168-19.2045 20.5829 17.1784-29.6601 18.3121 29.6601 18.3118-20.5828 17.1794-29.41680072-19.2045zm29.6605 18.3119 20.5839 17.1794 29.4158-19.2045-20.3396-16.287zm50-34.5981-29.4158-19.2045-20.5839 17.1784 29.6601 18.3121zm-49.9398 38.2941-20.6434 17.1278-8.833-5.7665v6.4653l29.4764 17.6748 29.4774-17.6748v-6.4653l-8.832 5.7665z" fill="#007ee5" fill-rule="evenodd"/></svg>

<svg fill="none" height="100" width="100" xmlns="http://www.w3.org/2000/svg"><path clip-rule="evenodd" d="M20.34 39.49 0 23.206 29.417 4 50 21.18 20.34 39.49 50 57.803 29.417 74.982 0 55.778zM50 57.804l20.584 17.179L100 55.778 79.66 39.49zm50-34.599L70.584 4 50 21.178 79.66 39.49zM50.06 61.5 29.417 78.626l-8.833-5.766v6.465L50.06 97l29.478-17.675V72.86l-8.832 5.766z" fill="#007ee5" fill-rule="evenodd"/></svg>
